X:13
T:The Bright Hollow Fog
M:4/4
L:1/8
K:G
EF| GFGA B2 gf| efed B2 GA| BABG EGFA|1 (G4G2) EF:|2 (G4G2) (3def|
|gfgf e2 fg| agfe d2 Bd| edef gfed| (e4e2) EF|
GFGA B2 gf| efed B2 GA| BABG EGFA| (G4G2) EF|>|
